packages/tokens/icons/product/size16Px.svg

<svg viewBox="0 0 16 16" fill="none" xmlns="http://www.w3.org/2000/svg" width="1em" height="1em"><path d="M12.3112 2.49171C12.1403 1.76324 11.4103 1.39431 10.7212 1.66453L7.48044 2.93524C7.11971 3.07668 6.77104 3.41386 6.58901 3.73449L2.92792 10.1832C2.59329 10.7726 2.66899 11.6143 3.32889 11.989L7.5131 14.3645C8.17299 14.7391 8.93457 14.3727 9.2692 13.7833L12.9303 7.3346C13.1177 7.0045 13.2535 6.50803 13.1531 6.08023L12.3112 2.49171Z" stroke="currentColor" stroke-linecap="round"/><circle cx="10.5001" cy="4.5" r="0.5" stroke="currentColor"/></svg>

<svg xmlns="http://www.w3.org/2000/svg" fill="none" viewBox="0 0 16 16" width="1em" height="1em"><path stroke="currentColor" stroke-linecap="round" d="M12.311 2.492c-.17-.729-.9-1.098-1.59-.827l-3.24 1.27c-.361.142-.71.479-.892.8l-3.661 6.448c-.335.59-.259 1.431.4 1.806l4.185 2.375c.66.375 1.422.009 1.756-.58l3.661-6.45c.188-.33.324-.826.223-1.254l-.842-3.588Z"/><circle cx="10.5" cy="4.5" r=".5" stroke="currentColor"/></svg>
